logo/copyleft.svg

<?xml version="1.0" encoding="UTF-8" standalone="no"?>
<svg width="256px" height="256px" viewBox="0 0 256 256" version="1.1" xmlns="http://www.w3.org/2000/svg" xmlns:xlink="http://www.w3.org/1999/xlink" preserveAspectRatio="xMidYMid">
    <g>
        <path d="M128,256 C198.692448,256 256,198.692448 256,128 C256,57.307552 198.692448,0 128,0 C57.307552,0 0,57.307552 0,128 C0,198.692448 57.307552,256 128,256 L128,256 Z M128,229.877551 C71.7345822,229.877551 26.122449,184.265418 26.122449,128 C26.122449,71.7345822 71.7345822,26.122449 128,26.122449 C184.265418,26.122449 229.877551,71.7345822 229.877551,128 C229.877551,184.265418 184.265418,229.877551 128,229.877551 L128,229.877551 Z M126.955102,56.1632653 C92.9959184,56.1632653 64.522449,79.9346939 57.2081633,111.804082 L91.4285714,111.804082 C97.6979592,98.2204082 111.281633,88.8163265 126.955102,88.8163265 C148.636735,88.8163265 166.138776,106.318367 166.138776,128 C166.138776,149.681633 148.636735,167.183673 126.955102,167.183673 C111.281633,167.183673 97.6979592,157.779592 91.4285714,144.457143 L57.2081633,144.457143 C64.522449,176.065306 92.9959184,199.836735 126.955102,199.836735 C166.661224,199.836735 198.791837,167.706122 198.791837,128 C198.791837,88.2938776 166.661224,56.1632653 126.955102,56.1632653 L126.955102,56.1632653 Z" fill="#000000"></path>
    </g>
</svg>

<svg viewBox="0 0 256 256" xmlns="http://www.w3.org/2000/svg"><path d="M128 256c70.69 0 128-57.31 128-128C256 57.3 198.69 0 128 0 57.3 0 0 57.3 0 128c0 70.69 57.3 128 128 128v0Zm0-26.13c-56.27 0-101.88-45.62-101.88-101.88 0-56.27 45.61-101.88 101.87-101.88 56.26 0 101.87 45.61 101.87 101.87 0 56.26-45.62 101.87-101.88 101.87v0Zm-1.05-173.72c-33.96 0-62.44 23.77-69.75 55.64h34.22c6.26-13.59 19.85-22.99 35.52-22.99 21.68 0 39.18 17.5 39.18 39.18s-17.51 39.18-39.19 39.18c-15.68 0-29.26-9.41-35.53-22.73H57.17c7.31 31.6 35.78 55.37 69.74 55.37 39.7 0 71.83-32.14 71.83-71.84 0-39.71-32.14-71.84-71.84-71.84v0Z"/></svg>
